X: 38
T:Spanish Dance
% Nottingham Music Database
S:Mick Peat
M:2/4
L:1/4
K:D
"D"D/4A/4F/4A/4 "G"D/4B/4G/4B/4|"D"D/2e/4f/4 "A"g/4f/4f/4e/4|\
"D"D/4A/4F/4A/4 "Em"D/4e/4f/4g/4|"A"f/4e/4d/4c/4 "D"d|
"A"e/4c/4A/4g/4 "D"f/4d/4A/4a/4|"A"e/4c/4A/4g/4 "D"f/2"A"e/4A/4|\
"D"a/4f/4d/4A/4 "G"B/4c/4d/4G/4|"D"F/2"A"E/2 "D"D:|
"A"A/4B/4c/4d/4 "D"d/4c/4B/4A/4|"Em"e/4f/4g/4f/4 "D"f/2"A"e/2|\
"Bm"f3/4f/4 "E"e/4^G/4A/4B/4|"A"c/4B/4"E"A/4^G/4 "A"A:|
"A"e3/4c/4 "D"A/2d/2|"G"B/4A/4G/4F/4 "A"E|"G"B/4e/4g/4f/4 "A"e/4c/4"G"d/4g/4|\
"A"f/4e/4d/4c/4 "D"d:|


